src/assets/duotone/Like.svg

<svg width="24" height="24" viewBox="0 0 24 24"  xmlns="http://www.w3.org/2000/svg">
<path opacity="0.4" d="M18 18.8597H17.24C16.44 18.8597 15.68 19.1698 15.12 19.7298L13.41 21.4198C12.63 22.1898 11.36 22.1898 10.58 21.4198L8.87 19.7298C8.31 19.1698 7.54 18.8597 6.75 18.8597H6C4.34 18.8597 3 17.5298 3 15.8898V4.97977C3 3.33977 4.34 2.00977 6 2.00977H18C19.66 2.00977 21 3.33977 21 4.97977V15.8898C21 17.5198 19.66 18.8597 18 18.8597Z" />
<path d="M12.28 14.96C12.13 15.01 11.88 15.01 11.72 14.96C10.42 14.51 7.5 12.66 7.5 9.51001C7.5 8.12001 8.62 7 10 7C10.82 7 11.54 7.39 12 8C12.46 7.39 13.18 7 14 7C15.38 7 16.5 8.12001 16.5 9.51001C16.49 12.66 13.58 14.51 12.28 14.96Z" />
</svg>

<?xml version="1.0" encoding="UTF-8"?>
<svg width="24" height="24" viewBox="0 0 24 24" xmlns="http://www.w3.org/2000/svg">
 <path d="m18 18.86h-0.76c-0.8 0-1.56 0.3101-2.12 0.8701l-1.71 1.69c-0.78 0.77-2.05 0.77-2.83 0l-1.71-1.69c-0.56-0.56-1.33-0.8701-2.12-0.8701h-0.75c-1.66 0-3-1.3299-3-2.9699v-10.91c0-1.64 1.34-2.97 3-2.97h12c1.66 0 3 1.33 3 2.97v10.91c0 1.63-1.34 2.9699-3 2.9699z" opacity=".4"/>
 <path d="m12.28 14.96c-0.15 0.05-0.4 0.05-0.56 0-1.3-0.45-4.22-2.3-4.22-5.45 0-1.39 1.12-2.51 2.5-2.51 0.82 0 1.54 0.39 2 1 0.46-0.61 1.18-1 2-1 1.38 0 2.5 1.12 2.5 2.51-0.01 3.15-2.92 5-4.22 5.45z"/>
</svg>
